X:1
T:Heiluizer
C:Trad.
O:Vlaanderen
Z:Bart Vanhaverbeke <bvanhaverbeke@unicall.be>
L:1/8
M:2/4
K:C
P:Voorspel
GG AB | cc Bc | d2 B2 | c3 z |]
P:A
GG AB | cc BA | GG FE | F/E/F D2 | GG AB | cc Bc | de/d/ cB |1 c2 A2 :|2 (c2 c) G |]
P:B
M:6/8
c2 c B2 B | A2 A G2 G | AAA G2 G | F2 F EEF | G2 G GFG |
A2 A AGA | B2 B A2 B |1\M:2/4\\L:1/8\ cc c G :|2\M:2/4\\L:1/8\ (c2 c) B/c/ |]
P:C
M:2/4
L:1/8
"vlugger"dcBA | GG z c | AA z d/c/ | BGAB | "rall." ccc G |]
w:||||*** Al
P:D
M:6/8
"Trager"c2 c B2 B | A2 A G2 G | AAA G2 G | F2 F EEF | G2 G GFG |
w:is't dat wij maar boer- kens zijn, wij ken- nen de lief- de toch zo fijn, en we gaan op zwier, en we
A2 A AGA | B2 B A2 B |1\M:2/4\\L:1/8\ (c2 c) G :|2\M:C\\L:1/8\ (c2 c) z z G E G |]
w:gaan op zwier, en we ma- ken veel ple- zier_ Al zier!_ En in ons
P:E
M:C
(c4 c)B AG | B2 A2 z2 F2 | (A4 A)G AG | E2 z2 z2 G2 |
w:land_ mes- ten ze ver- kens, in Hol-_ land is't maar vis, Zes
c4 cB AG | B2 A2 z2 F2 | (A4 A)G AG |\M:2/4\\L:1/8\ E2 z2 |]
w:da- gen moe- ten we wer- ken eer 't~on-_ ze zon- dag is.
P:F
M:6/8
c2 c B2 B | A2 A G2 G | AAA G2 G | F2 F EEF |
w:Tie- re- lie- re ver- kens- mie- re ma- ge- re peer- kens zijn niet vet, en we
G2 G GFG | A2 A AGA | B2 B A2 B | (c3 c2) z :|
w:gaan op zwier, en we gaan op zwier en we ma- ken veel ple- zier!_
P:G
M:C|
L:1/4
G G G c | A A A d/c/ | B f e d | c e g2 | G G G c |
A A A d/c/ | B f e d |1 c e c z :|2 c z (c c/) z/ |]
W:Volgorde :
W:Voorspel AA / BB / C / DD / E / FF / GG
W:Voorspel AA / C / DD / E / FF / GG
W:Voorspel A / BBB Voorspel
